assets/1. Faces/Leg/Medium-Light/Color/leg_color_medium-light.svg

<svg width="100%" height="100%" viewBox="0 0 32 32" fill="none" xmlns="http://www.w3.org/2000/svg">
<g filter="url(#filter0_i_20020_4477)">
<path d="M12.5922 6.26562L24.0507 11.3318C25.6767 12.0489 26.4252 13.9391 25.7309 15.5751L21.7484 25.125C21.4678 25.7862 21.8373 26.2897 22.264 26.6406C23.0911 27.3208 24.255 27.9116 25.036 27.9823C25.1196 27.9582 25.2079 27.9453 25.2992 27.9453C25.8234 27.9453 26.2484 28.3703 26.2484 28.8945C26.2484 29.4149 25.8297 29.8374 25.3109 29.8437L25.2992 29.8437L19.02 29.8437C18.0044 29.8437 17.2824 28.8556 17.5909 27.888L18.0588 26.4208C18.1738 26.0602 18.2196 25.6811 18.1936 25.3035L17.9594 21.4844C17.9594 19.4766 18.5154 17.4879 19.8656 16.6875L20.1747 16.4466C20.2719 16.3555 20.2954 16.3217 20.2954 16.2346C20.2954 16.0912 20.1733 15.9781 20.0303 15.989L19.1395 16.0571C18.2783 16.1229 17.4122 16.0769 16.5628 15.9202L9.96715 14.7031C6.92029 14.1562 5.00562 11.2712 6.02973 8.59374C6.96072 6.15976 9.85785 5.125 12.5922 6.26562Z" fill="url(#paint0_linear_20020_4477)"/>
<path d="M12.5922 6.26562L24.0507 11.3318C25.6767 12.0489 26.4252 13.9391 25.7309 15.5751L21.7484 25.125C21.4678 25.7862 21.8373 26.2897 22.264 26.6406C23.0911 27.3208 24.255 27.9116 25.036 27.9823C25.1196 27.9582 25.2079 27.9453 25.2992 27.9453C25.8234 27.9453 26.2484 28.3703 26.2484 28.8945C26.2484 29.4149 25.8297 29.8374 25.3109 29.8437L25.2992 29.8437L19.02 29.8437C18.0044 29.8437 17.2824 28.8556 17.5909 27.888L18.0588 26.4208C18.1738 26.0602 18.2196 25.6811 18.1936 25.3035L17.9594 21.4844C17.9594 19.4766 18.5154 17.4879 19.8656 16.6875L20.1747 16.4466C20.2719 16.3555 20.2954 16.3217 20.2954 16.2346C20.2954 16.0912 20.1733 15.9781 20.0303 15.989L19.1395 16.0571C18.2783 16.1229 17.4122 16.0769 16.5628 15.9202L9.96715 14.7031C6.92029 14.1562 5.00562 11.2712 6.02973 8.59374C6.96072 6.15976 9.85785 5.125 12.5922 6.26562Z" fill="url(#paint1_radial_20020_4477)"/>
</g>
<path d="M12.5922 6.26562L24.0507 11.3318C25.6767 12.0489 26.4252 13.9391 25.7309 15.5751L21.7484 25.125C21.4678 25.7862 21.8373 26.2897 22.264 26.6406C23.0911 27.3208 24.255 27.9116 25.036 27.9823C25.1196 27.9582 25.2079 27.9453 25.2992 27.9453C25.8234 27.9453 26.2484 28.3703 26.2484 28.8945C26.2484 29.4149 25.8297 29.8374 25.3109 29.8437L25.2992 29.8437L19.02 29.8437C18.0044 29.8437 17.2824 28.8556 17.5909 27.888L18.0588 26.4208C18.1738 26.0602 18.2196 25.6811 18.1936 25.3035L17.9594 21.4844C17.9594 19.4766 18.5154 17.4879 19.8656 16.6875L20.1747 16.4466C20.2719 16.3555 20.2954 16.3217 20.2954 16.2346C20.2954 16.0912 20.1733 15.9781 20.0303 15.989L19.1395 16.0571C18.2783 16.1229 17.4122 16.0769 16.5628 15.9202L9.96715 14.7031C6.92029 14.1562 5.00562 11.2712 6.02973 8.59374C6.96072 6.15976 9.85785 5.125 12.5922 6.26562Z" fill="url(#paint2_linear_20020_4477)"/>
<path d="M12.5922 6.26562L24.0507 11.3318C25.6767 12.0489 26.4252 13.9391 25.7309 15.5751L21.7484 25.125C21.4678 25.7862 21.8373 26.2897 22.264 26.6406C23.0911 27.3208 24.255 27.9116 25.036 27.9823C25.1196 27.9582 25.2079 27.9453 25.2992 27.9453C25.8234 27.9453 26.2484 28.3703 26.2484 28.8945C26.2484 29.4149 25.8297 29.8374 25.3109 29.8437L25.2992 29.8437L19.02 29.8437C18.0044 29.8437 17.2824 28.8556 17.5909 27.888L18.0588 26.4208C18.1738 26.0602 18.2196 25.6811 18.1936 25.3035L17.9594 21.4844C17.9594 19.4766 18.5154 17.4879 19.8656 16.6875L20.1747 16.4466C20.2719 16.3555 20.2954 16.3217 20.2954 16.2346C20.2954 16.0912 20.1733 15.9781 20.0303 15.989L19.1395 16.0571C18.2783 16.1229 17.4122 16.0769 16.5628 15.9202L9.96715 14.7031C6.92029 14.1562 5.00562 11.2712 6.02973 8.59374C6.96072 6.15976 9.85785 5.125 12.5922 6.26562Z" fill="url(#paint3_radial_20020_4477)"/>
<path d="M12.5922 6.26562L24.0507 11.3318C25.6767 12.0489 26.4252 13.9391 25.7309 15.5751L21.7484 25.125C21.4678 25.7862 21.8373 26.2897 22.264 26.6406C23.0911 27.3208 24.255 27.9116 25.036 27.9823C25.1196 27.9582 25.2079 27.9453 25.2992 27.9453C25.8234 27.9453 26.2484 28.3703 26.2484 28.8945C26.2484 29.4149 25.8297 29.8374 25.3109 29.8437L25.2992 29.8437L19.02 29.8437C18.0044 29.8437 17.2824 28.8556 17.5909 27.888L18.0588 26.4208C18.1738 26.0602 18.2196 25.6811 18.1936 25.3035L17.9594 21.4844C17.9594 19.4766 18.5154 17.4879 19.8656 16.6875L20.1747 16.4466C20.2719 16.3555 20.2954 16.3217 20.2954 16.2346C20.2954 16.0912 20.1733 15.9781 20.0303 15.989L19.1395 16.0571C18.2783 16.1229 17.4122 16.0769 16.5628 15.9202L9.96715 14.7031C6.92029 14.1562 5.00562 11.2712 6.02973 8.59374C6.96072 6.15976 9.85785 5.125 12.5922 6.26562Z" fill="url(#paint4_radial_20020_4477)"/>
<path d="M12.5922 6.26562L24.0507 11.3318C25.6767 12.0489 26.4252 13.9391 25.7309 15.5751L21.7484 25.125C21.4678 25.7862 21.8373 26.2897 22.264 26.6406C23.0911 27.3208 24.255 27.9116 25.036 27.9823C25.1196 27.9582 25.2079 27.9453 25.2992 27.9453C25.8234 27.9453 26.2484 28.3703 26.2484 28.8945C26.2484 29.4149 25.8297 29.8374 25.3109 29.8437L25.2992 29.8437L19.02 29.8437C18.0044 29.8437 17.2824 28.8556 17.5909 27.888L18.0588 26.4208C18.1738 26.0602 18.2196 25.6811 18.1936 25.3035L17.9594 21.4844C17.9594 19.4766 18.5154 17.4879 19.8656 16.6875L20.1747 16.4466C20.2719 16.3555 20.2954 16.3217 20.2954 16.2346C20.2954 16.0912 20.1733 15.9781 20.0303 15.989L19.1395 16.0571C18.2783 16.1229 17.4122 16.0769 16.5628 15.9202L9.96715 14.7031C6.92029 14.1562 5.00562 11.2712 6.02973 8.59374C6.96072 6.15976 9.85785 5.125 12.5922 6.26562Z" fill="url(#paint5_radial_20020_4477)"/>
<path d="M12.5922 6.26562L24.0507 11.3318C25.6767 12.0489 26.4252 13.9391 25.7309 15.5751L21.7484 25.125C21.4678 25.7862 21.8373 26.2897 22.264 26.6406C23.0911 27.3208 24.255 27.9116 25.036 27.9823C25.1196 27.9582 25.2079 27.9453 25.2992 27.9453C25.8234 27.9453 26.2484 28.3703 26.2484 28.8945C26.2484 29.4149 25.8297 29.8374 25.3109 29.8437L25.2992 29.8437L19.02 29.8437C18.0044 29.8437 17.2824 28.8556 17.5909 27.888L18.0588 26.4208C18.1738 26.0602 18.2196 25.6811 18.1936 25.3035L17.9594 21.4844C17.9594 19.4766 18.5154 17.4879 19.8656 16.6875L20.1747 16.4466C20.2719 16.3555 20.2954 16.3217 20.2954 16.2346C20.2954 16.0912 20.1733 15.9781 20.0303 15.989L19.1395 16.0571C18.2783 16.1229 17.4122 16.0769 16.5628 15.9202L9.96715 14.7031C6.92029 14.1562 5.00562 11.2712 6.02973 8.59374C6.96072 6.15976 9.85785 5.125 12.5922 6.26562Z" fill="url(#paint6_radial_20020_4477)"/>
<g filter="url(#filter1_f_20020_4477)">
<path d="M19.8747 25.4031L21.322 25.7096C21.322 26.1592 21.5349 26.3822 21.6711 26.544L20.7772 27.787L20.4196 27.0038L19.9994 27.2239C19.8368 27.309 19.636 27.2454 19.5521 27.0822C19.4674 26.9176 19.5345 26.7156 19.7007 26.6342L20.1982 26.3908L19.8747 25.4031Z" fill="url(#paint7_linear_20020_4477)"/>
</g>
<g filter="url(#filter2_f_20020_4477)">
<path d="M21.5971 28.0368C22.0002 28.3279 23.3484 28.9102 25.5163 28.9102" stroke="url(#paint8_linear_20020_4477)" stroke-width="0.5" stroke-linecap="round"/>
</g>
<g filter="url(#filter3_f_20020_4477)">
<path d="M11.3848 8.57513L23.4336 13.4126" stroke="url(#paint9_linear_20020_4477)" stroke-width="2" stroke-linecap="round"/>
</g>
<g filter="url(#filter4_f_20020_4477)">
<path d="M24.0609 13.875L21.1859 21.3125" stroke="url(#paint10_linear_20020_4477)" stroke-width="2" stroke-linecap="round"/>
</g>
<g filter="url(#filter5_f_20020_4477)">
<path d="M6.59756 9.12347C6.39683 9.98109 6.41687 11.9646 8.10293 13.0375" stroke="url(#paint11_linear_20020_4477)" stroke-width="0.5" stroke-linecap="round"/>
</g>
<defs>
<filter id="filter0_i_20020_4477" x="5.75165" y="4.802" width="21.9968" height="25.0417" filterUnits="userSpaceOnUse" color-interpolation-filters="sRGB">
<feFlood flood-opacity="0" result="BackgroundImageFix"/>
<feBlend mode="normal" in="SourceGraphic" in2="BackgroundImageFix" result="shape"/>
<feColorMatrix in="SourceAlpha" type="matrix" values="0 0 0 0 0 0 0 0 0 0 0 0 0 0 0 0 0 0 127 0" result="hardAlpha"/>
<feOffset dx="1.5" dy="-1"/>
<feGaussianBlur stdDeviation="1.5"/>
<feComposite in2="hardAlpha" operator="arithmetic" k2="-1" k3="1"/>
<feColorMatrix type="matrix" values="0 0 0 0 0.807843 0 0 0 0 0.607843 0 0 0 0 0.47451 0 0 0 1 0"/>
<feBlend mode="normal" in2="shape" result="effect1_innerShadow_20020_4477"/>
</filter>
<filter id="filter1_f_20020_4477" x="19.0154" y="24.9031" width="3.1557" height="3.38391" filterUnits="userSpaceOnUse" color-interpolation-filters="sRGB">
<feFlood flood-opacity="0" result="BackgroundImageFix"/>
<feBlend mode="normal" in="SourceGraphic" in2="BackgroundImageFix" result="shape"/>
<feGaussianBlur stdDeviation="0.25" result="effect1_foregroundBlur_20020_4477"/>
</filter>
<filter id="filter2_f_20020_4477" x="20.8471" y="27.2868" width="5.41919" height="2.37341" filterUnits="userSpaceOnUse" color-interpolation-filters="sRGB">
<feFlood flood-opacity="0" result="BackgroundImageFix"/>
<feBlend mode="normal" in="SourceGraphic" in2="BackgroundImageFix" result="shape"/>
<feGaussianBlur stdDeviation="0.25" result="effect1_foregroundBlur_20020_4477"/>
</filter>
<filter id="filter3_f_20020_4477" x="9.38452" y="6.57489" width="16.0493" height="8.83795" filterUnits="userSpaceOnUse" color-interpolation-filters="sRGB">
<feFlood flood-opacity="0" result="BackgroundImageFix"/>
<feBlend mode="normal" in="SourceGraphic" in2="BackgroundImageFix" result="shape"/>
<feGaussianBlur stdDeviation="0.5" result="effect1_foregroundBlur_20020_4477"/>
</filter>
<filter id="filter4_f_20020_4477" x="19.1857" y="11.8748" width="6.87549" height="11.438" filterUnits="userSpaceOnUse" color-interpolation-filters="sRGB">
<feFlood flood-opacity="0" result="BackgroundImageFix"/>
<feBlend mode="normal" in="SourceGraphic" in2="BackgroundImageFix" result="shape"/>
<feGaussianBlur stdDeviation="0.5" result="effect1_foregroundBlur_20020_4477"/>
</filter>
<filter id="filter5_f_20020_4477" x="5.76099" y="8.37341" width="3.09198" height="5.41412" filterUnits="userSpaceOnUse" color-interpolation-filters="sRGB">
<feFlood flood-opacity="0" result="BackgroundImageFix"/>
<feBlend mode="normal" in="SourceGraphic" in2="BackgroundImageFix" result="shape"/>
<feGaussianBlur stdDeviation="0.25" result="effect1_foregroundBlur_20020_4477"/>
</filter>
<linearGradient id="paint0_linear_20020_4477" x1="15.5922" y1="7.15625" x2="21.3401" y2="32.0614" gradientUnits="userSpaceOnUse">
<stop stop-color="#F7C69B"/>
<stop offset="1" stop-color="#EBB894"/>
</linearGradient>
<radialGradient id="paint1_radial_20020_4477" cx="0" cy="0" r="1" gradientUnits="userSpaceOnUse" gradientTransform="translate(22.6769 26.2656) rotate(138.945) scale(1.92701 3.7229)">
<stop stop-color="#F3C39B"/>
<stop offset="1" stop-color="#F3C39B" stop-opacity="0"/>
</radialGradient>
<linearGradient id="paint2_linear_20020_4477" x1="20.8422" y1="30.3437" x2="20.8422" y2="28.625" gradientUnits="userSpaceOnUse">
<stop stop-color="#BF758C"/>
<stop offset="1" stop-color="#BF758C" stop-opacity="0"/>
</linearGradient>
<radialGradient id="paint3_radial_20020_4477" cx="0" cy="0" r="1" gradientUnits="userSpaceOnUse" gradientTransform="translate(19.2394 16.5) rotate(-20.4125) scale(2.35197 1.04112)">
<stop stop-color="#BB795E"/>
<stop offset="0.847395" stop-color="#BB795E" stop-opacity="0"/>
</radialGradient>
<radialGradient id="paint4_radial_20020_4477" cx="0" cy="0" r="1" gradientUnits="userSpaceOnUse" gradientTransform="translate(19.2394 16.5) rotate(-20.4125) scale(2.35197 0.344999)">
<stop stop-color="#DAA084"/>
<stop offset="0.847395" stop-color="#DAA084" stop-opacity="0"/>
</radialGradient>
<radialGradient id="paint5_radial_20020_4477" cx="0" cy="0" r="1" gradientUnits="userSpaceOnUse" gradientTransform="translate(11.893 15.3598) rotate(-79.1499) scale(5.19919 12.3762)">
<stop stop-color="#B77287"/>
<stop offset="1" stop-color="#B77287" stop-opacity="0"/>
</radialGradient>
<radialGradient id="paint6_radial_20020_4477" cx="0" cy="0" r="1" gradientUnits="userSpaceOnUse" gradientTransform="translate(17.4911 24.1226) rotate(-71.6216) scale(8.76789 3.22846)">
<stop offset="0.09375" stop-color="#D49789"/>
<stop offset="1" stop-color="#D49789" stop-opacity="0"/>
</radialGradient>
<linearGradient id="paint7_linear_20020_4477" x1="19.9399" y1="27.1857" x2="22.4257" y2="26.0884" gradientUnits="userSpaceOnUse">
<stop stop-color="#FFCDAD"/>
<stop offset="1" stop-color="#FFCDAD" stop-opacity="0"/>
</linearGradient>
<linearGradient id="paint8_linear_20020_4477" x1="25.3819" y1="28.9102" x2="20.3654" y2="28.9102" gradientUnits="userSpaceOnUse">
<stop stop-color="#F3C0A4"/>
<stop offset="1" stop-color="#F3C0A4" stop-opacity="0"/>
</linearGradient>
<linearGradient id="paint9_linear_20020_4477" x1="22.9636" y1="13.4125" x2="8.36175" y2="8.06208" gradientUnits="userSpaceOnUse">
<stop stop-color="#FFCEAA"/>
<stop offset="1" stop-color="#FFCEAA" stop-opacity="0"/>
</linearGradient>
<linearGradient id="paint10_linear_20020_4477" x1="23.9488" y1="21.3125" x2="20.0095" y2="21.0885" gradientUnits="userSpaceOnUse">
<stop stop-color="#FFCEAA"/>
<stop offset="1" stop-color="#FFCEAA" stop-opacity="0"/>
</linearGradient>
<linearGradient id="paint11_linear_20020_4477" x1="6.10487" y1="11.45" x2="8.31119" y2="10.5617" gradientUnits="userSpaceOnUse">
<stop stop-color="#DBA086"/>
<stop offset="1" stop-color="#DBA086" stop-opacity="0"/>
</linearGradient>
</defs>
</svg>

<svg width="100%" height="100%" viewBox="0 0 32 32" xmlns="http://www.w3.org/2000/svg"><g filter="url(#a)"><path fill="url(#b)" d="m12.592 6.266 11.459 5.066a3.25 3.25 0 0 1 1.68 4.243l-3.983 9.55c-.28.661.09 1.165.516 1.516.827.68 1.991 1.27 2.772 1.341a.949.949 0 1 1 .275 1.862H19.02a1.5 1.5 0 0 1-1.43-1.956l.469-1.467a3 3 0 0 0 .135-1.117l-.235-3.82c0-2.007.556-3.996 1.907-4.797l.309-.24c.097-.091.12-.125.12-.212a.246.246 0 0 0-.265-.246l-.89.068c-.862.066-1.728.02-2.577-.137l-6.596-1.217c-3.047-.547-4.961-3.432-3.937-6.11.93-2.433 3.828-3.468 6.562-2.327"/><path fill="url(#c)" d="m12.592 6.266 11.459 5.066a3.25 3.25 0 0 1 1.68 4.243l-3.983 9.55c-.28.661.09 1.165.516 1.516.827.68 1.991 1.27 2.772 1.341a.949.949 0 1 1 .275 1.862H19.02a1.5 1.5 0 0 1-1.43-1.956l.469-1.467a3 3 0 0 0 .135-1.117l-.235-3.82c0-2.007.556-3.996 1.907-4.797l.309-.24c.097-.091.12-.125.12-.212a.246.246 0 0 0-.265-.246l-.89.068c-.862.066-1.728.02-2.577-.137l-6.596-1.217c-3.047-.547-4.961-3.432-3.937-6.11.93-2.433 3.828-3.468 6.562-2.327"/></g><path fill="url(#d)" d="m12.592 6.266 11.459 5.066a3.25 3.25 0 0 1 1.68 4.243l-3.983 9.55c-.28.661.09 1.165.516 1.516.827.68 1.991 1.27 2.772 1.341a.949.949 0 1 1 .275 1.862H19.02a1.5 1.5 0 0 1-1.43-1.956l.469-1.467a3 3 0 0 0 .135-1.117l-.235-3.82c0-2.007.556-3.996 1.907-4.797l.309-.24c.097-.091.12-.125.12-.212a.246.246 0 0 0-.265-.246l-.89.068c-.862.066-1.728.02-2.577-.137l-6.596-1.217c-3.047-.547-4.961-3.432-3.937-6.11.93-2.433 3.828-3.468 6.562-2.327"/><path fill="url(#e)" d="m12.592 6.266 11.459 5.066a3.25 3.25 0 0 1 1.68 4.243l-3.983 9.55c-.28.661.09 1.165.516 1.516.827.68 1.991 1.27 2.772 1.341a.949.949 0 1 1 .275 1.862H19.02a1.5 1.5 0 0 1-1.43-1.956l.469-1.467a3 3 0 0 0 .135-1.117l-.235-3.82c0-2.007.556-3.996 1.907-4.797l.309-.24c.097-.091.12-.125.12-.212a.246.246 0 0 0-.265-.246l-.89.068c-.862.066-1.728.02-2.577-.137l-6.596-1.217c-3.047-.547-4.961-3.432-3.937-6.11.93-2.433 3.828-3.468 6.562-2.327"/><path fill="url(#f)" d="m12.592 6.266 11.459 5.066a3.25 3.25 0 0 1 1.68 4.243l-3.983 9.55c-.28.661.09 1.165.516 1.516.827.68 1.991 1.27 2.772 1.341a.949.949 0 1 1 .275 1.862H19.02a1.5 1.5 0 0 1-1.43-1.956l.469-1.467a3 3 0 0 0 .135-1.117l-.235-3.82c0-2.007.556-3.996 1.907-4.797l.309-.24c.097-.091.12-.125.12-.212a.246.246 0 0 0-.265-.246l-.89.068c-.862.066-1.728.02-2.577-.137l-6.596-1.217c-3.047-.547-4.961-3.432-3.937-6.11.93-2.433 3.828-3.468 6.562-2.327"/><path fill="url(#g)" d="m12.592 6.266 11.459 5.066a3.25 3.25 0 0 1 1.68 4.243l-3.983 9.55c-.28.661.09 1.165.516 1.516.827.68 1.991 1.27 2.772 1.341a.949.949 0 1 1 .275 1.862H19.02a1.5 1.5 0 0 1-1.43-1.956l.469-1.467a3 3 0 0 0 .135-1.117l-.235-3.82c0-2.007.556-3.996 1.907-4.797l.309-.24c.097-.091.12-.125.12-.212a.246.246 0 0 0-.265-.246l-.89.068c-.862.066-1.728.02-2.577-.137l-6.596-1.217c-3.047-.547-4.961-3.432-3.937-6.11.93-2.433 3.828-3.468 6.562-2.327"/><path fill="url(#h)" d="m12.592 6.266 11.459 5.066a3.25 3.25 0 0 1 1.68 4.243l-3.983 9.55c-.28.661.09 1.165.516 1.516.827.68 1.991 1.27 2.772 1.341a.949.949 0 1 1 .275 1.862H19.02a1.5 1.5 0 0 1-1.43-1.956l.469-1.467a3 3 0 0 0 .135-1.117l-.235-3.82c0-2.007.556-3.996 1.907-4.797l.309-.24c.097-.091.12-.125.12-.212a.246.246 0 0 0-.265-.246l-.89.068c-.862.066-1.728.02-2.577-.137l-6.596-1.217c-3.047-.547-4.961-3.432-3.937-6.11.93-2.433 3.828-3.468 6.562-2.327"/><g filter="url(#i)"><path fill="url(#j)" d="m19.875 25.403 1.447.307c0 .45.213.672.35.834l-.895 1.243-.357-.783-.42.22a.33.33 0 1 1-.3-.59l.498-.243z"/></g><g filter="url(#k)"><path stroke="url(#l)" stroke-linecap="round" stroke-width=".5" d="M21.597 28.037c.403.29 1.751.873 3.92.873"/></g><g filter="url(#m)"><path stroke="url(#n)" stroke-linecap="round" stroke-width="2" d="m11.385 8.575 12.049 4.838"/></g><g filter="url(#o)"><path stroke="url(#p)" stroke-linecap="round" stroke-width="2" d="m24.06 13.875-2.874 7.438"/></g><g filter="url(#q)"><path stroke="url(#r)" stroke-linecap="round" stroke-width=".5" d="M6.598 9.123c-.201.858-.181 2.842 1.505 3.915"/></g><defs><linearGradient id="b" x1="15.592" x2="21.34" y1="7.156" y2="32.061" gradientUnits="userSpaceOnUse"><stop stop-color="#F7C69B"/><stop offset="1" stop-color="#EBB894"/></linearGradient><linearGradient id="d" x1="20.842" x2="20.842" y1="30.344" y2="28.625" gradientUnits="userSpaceOnUse"><stop stop-color="#BF758C"/><stop offset="1" stop-color="#BF758C" stop-opacity="0"/></linearGradient><linearGradient id="j" x1="19.94" x2="22.426" y1="27.186" y2="26.088" gradientUnits="userSpaceOnUse"><stop stop-color="#FFCDAD"/><stop offset="1" stop-color="#FFCDAD" stop-opacity="0"/></linearGradient><linearGradient id="l" x1="25.382" x2="20.365" y1="28.91" y2="28.91" gradientUnits="userSpaceOnUse"><stop stop-color="#F3C0A4"/><stop offset="1" stop-color="#F3C0A4" stop-opacity="0"/></linearGradient><linearGradient id="n" x1="22.964" x2="8.362" y1="13.412" y2="8.062" gradientUnits="userSpaceOnUse"><stop stop-color="#FFCEAA"/><stop offset="1" stop-color="#FFCEAA" stop-opacity="0"/></linearGradient><linearGradient id="p" x1="23.949" x2="20.009" y1="21.313" y2="21.088" gradientUnits="userSpaceOnUse"><stop stop-color="#FFCEAA"/><stop offset="1" stop-color="#FFCEAA" stop-opacity="0"/></linearGradient><linearGradient id="r" x1="6.105" x2="8.311" y1="11.45" y2="10.562" gradientUnits="userSpaceOnUse"><stop stop-color="#DBA086"/><stop offset="1" stop-color="#DBA086" stop-opacity="0"/></linearGradient><filter id="a" width="21.997" height="25.042" x="5.752" y="4.802" color-interpolation-filters="sRGB" filterUnits="userSpaceOnUse"><feFlood flood-opacity="0" result="BackgroundImageFix"/><feBlend in="SourceGraphic" in2="BackgroundImageFix" result="shape"/><feColorMatrix in="SourceAlpha" result="hardAlpha" values="0 0 0 0 0 0 0 0 0 0 0 0 0 0 0 0 0 0 127 0"/><feOffset dx="1.5" dy="-1"/><feGaussianBlur stdDeviation="1.5"/><feComposite in2="hardAlpha" k2="-1" k3="1" operator="arithmetic"/><feColorMatrix values="0 0 0 0 0.807843 0 0 0 0 0.607843 0 0 0 0 0.47451 0 0 0 1 0"/><feBlend in2="shape" result="effect1_innerShadow_20020_4477"/></filter><filter id="i" width="3.156" height="3.384" x="19.015" y="24.903" color-interpolation-filters="sRGB" filterUnits="userSpaceOnUse"><feFlood flood-opacity="0" result="BackgroundImageFix"/><feBlend in="SourceGraphic" in2="BackgroundImageFix" result="shape"/><feGaussianBlur result="effect1_foregroundBlur_20020_4477" stdDeviation=".25"/></filter><filter id="k" width="5.419" height="2.373" x="20.847" y="27.287" color-interpolation-filters="sRGB" filterUnits="userSpaceOnUse"><feFlood flood-opacity="0" result="BackgroundImageFix"/><feBlend in="SourceGraphic" in2="BackgroundImageFix" result="shape"/><feGaussianBlur result="effect1_foregroundBlur_20020_4477" stdDeviation=".25"/></filter><filter id="m" width="16.049" height="8.838" x="9.385" y="6.575" color-interpolation-filters="sRGB" filterUnits="userSpaceOnUse"><feFlood flood-opacity="0" result="BackgroundImageFix"/><feBlend in="SourceGraphic" in2="BackgroundImageFix" result="shape"/><feGaussianBlur result="effect1_foregroundBlur_20020_4477" stdDeviation=".5"/></filter><filter id="o" width="6.875" height="11.438" x="19.186" y="11.875" color-interpolation-filters="sRGB" filterUnits="userSpaceOnUse"><feFlood flood-opacity="0" result="BackgroundImageFix"/><feBlend in="SourceGraphic" in2="BackgroundImageFix" result="shape"/><feGaussianBlur result="effect1_foregroundBlur_20020_4477" stdDeviation=".5"/></filter><filter id="q" width="3.092" height="5.414" x="5.761" y="8.373" color-interpolation-filters="sRGB" filterUnits="userSpaceOnUse"><feFlood flood-opacity="0" result="BackgroundImageFix"/><feBlend in="SourceGraphic" in2="BackgroundImageFix" result="shape"/><feGaussianBlur result="effect1_foregroundBlur_20020_4477" stdDeviation=".25"/></filter><radialGradient id="c" cx="0" cy="0" r="1" gradientTransform="rotate(138.945 6.421 17.378)scale(1.92701 3.7229)" gradientUnits="userSpaceOnUse"><stop stop-color="#F3C39B"/><stop offset="1" stop-color="#F3C39B" stop-opacity="0"/></radialGradient><radialGradient id="e" cx="0" cy="0" r="1" gradientTransform="matrix(2.20428 -.82031 .36312 .97574 19.24 16.5)" gradientUnits="userSpaceOnUse"><stop stop-color="#BB795E"/><stop offset=".847" stop-color="#BB795E" stop-opacity="0"/></radialGradient><radialGradient id="f" cx="0" cy="0" r="1" gradientTransform="matrix(2.20428 -.82031 .12033 .32334 19.24 16.5)" gradientUnits="userSpaceOnUse"><stop stop-color="#DAA084"/><stop offset=".847" stop-color="#DAA084" stop-opacity="0"/></radialGradient><radialGradient id="g" cx="0" cy="0" r="1" gradientTransform="rotate(-79.15 15.238 .485)scale(5.19919 12.3762)" gradientUnits="userSpaceOnUse"><stop stop-color="#B77287"/><stop offset="1" stop-color="#B77287" stop-opacity="0"/></radialGradient><radialGradient id="h" cx="0" cy="0" r="1" gradientTransform="matrix(2.76444 -8.32068 3.0638 1.0179 17.491 24.123)" gradientUnits="userSpaceOnUse"><stop offset=".094" stop-color="#D49789"/><stop offset="1" stop-color="#D49789" stop-opacity="0"/></radialGradient></defs></svg>
